X:262
T:Ranting Widow* (reel), The 
T:Youngest Daughter, Tap Room
B:CRE2.292 (gan ainm)
F:file ID: cre.2/262rant_w
S:Sonny McDonagh (Sligo)
L:1/8
M:C
R:reel
Q:180
K:Em
D|E2BE dBB2|dBAF DEFD|E2BE dBB2|dBA^c BEED|
E2BE dBB^c|dBAF DEFD|E2BE dBB2|dBA^c BEE||
d|B2eg faef|dBAF DEFA|B2eg faef|dBA^c BEED|
B2eg f2eg|fdd^c d2fg|afge fd (3efe|dBA^c BEE||

%%%

